; generated by PrusaSlicer 2.3.3+win64 on 2021-11-06 at 18:12:02 UTC


;
;

;
;
; 

; external perimeters extrusion width = 0.45mm
; perimeters extrusion width = 0.45mm
; infill extrusion width = 0.45mm
; solid infill extrusion width = 0.45mm
; top infill extrusion width = 0.40mm
; first layer extrusion width = 0.42mm

M73 P0 R363
M201 X1250 Y1250 Z400 E5000 ; sets maximum accelerations, mm/sec^2
M203 X180 Y180 Z12 E80 ; sets maximum feedrates, mm/sec
M204 P1250 R1250 T1250 ; sets acceleration (P, T) and retract acceleration (R), mm/sec^2
M205 X8.00 Y8.00 Z2.00 E10.00 ; sets the jerk limits, mm/sec
M205 S0 T0 ; sets the minimum extruding and travel feed rate, mm/sec
M107
;TYPE:Custom
G90 ; use absolute coordinates
M83 ; extruder relative mode
M104 S170 ; set extruder temp for bed leveling
M140 S60 ; set bed temp
M109 R170 ; wait for bed leveling temp
M190 S60 ; wait for bed temp
G28 ; home all without mesh bed level
G29 ; mesh bed leveling 
M104 S215 ; set extruder temp
G92 E0.0
G1 Y-2.0 X179 F2400
G1 Z3 F720
M109 S215 ; wait for extruder temp

; intro line
G1 X170 F1000
G1 Z0.2 F720
G1 X110.0 E8.0 F900
G1 X40.0 E10.0 F700
G92 E0.0

M221 S95 ; set flow
G21 ; set units to millimeters
G90 ; use absolute coordinates
M83 ; use relative distances for extrusion
M900 K0.2 ; Filament gcode LA 1.5
; ; Filament gcode LA 1.0
;LAYER_CHANGE
;Z:0.2
;HEIGHT:0.2
;BEFORE_LAYER_CHANGE
G92 E0.0
;0.2


G1 E-3.20000 F4200.000
G1 Z0.200 F9000.000
;AFTER_LAYER_CHANGE
;0.2
G1 Z0.400
G1 X3.540 Y62.657
G1 Z0.200
M73 P0 R362
G1 E3.20000 F2400.000
M204 S800
;TYPE:Skirt
;WIDTH:0.42
G1 F1200.000
G1 X4.200 Y62.331 E0.02308
G1 X4.910 Y62.223 E0.02252
G1 X175.094 Y62.223 E5.33599
G1 X175.996 Y62.402 E0.02884
G1 X176.760 Y62.908 E0.02872
G1 X177.277 Y63.669 E0.02884
G1 X177.467 Y64.568 E0.02884
G1 X177.466 Y115.476 E1.59618
G1 X177.330 Y116.196 E0.02296
G1 X176.982 Y116.840 E0.02296
G1 X176.457 Y117.345 E0.02284
G1 X175.800 Y117.669 E0.02296
G1 X175.090 Y117.777 E0.02252
G1 X4.887 Y117.777 E5.33659
G1 X4.154 Y117.654 E0.02331
G1 X3.495 Y117.310 E0.02331
G1 X2.974 Y116.779 E0.02331
G1 X2.641 Y116.110 E0.02343
G1 X2.533 Y115.405 E0.02237
G1 X2.534 Y64.531 E1.59510
G1 X2.667 Y63.812 E0.02296
G1 X3.014 Y63.166 E0.02296
G1 X3.497 Y62.699 E0.02108
M204 S1250
; printing object sign_holder v3.stl id:0 copy 0
G1 E-2.24000 F4200.000
;WIPE_START
G1 F7200.000
G1 X4.200 Y62.331 E-0.43963
G1 X4.910 Y62.223 E-0.39801
G1 X5.044 Y62.223 E-0.07435
;WIPE_END
G1 E-0.04800 F4200.000
G1 Z0.400 F9000.000
G1 X5.697 Y65.387
G1 Z0.200
G1 E3.20000 F2400.000
M204 S800
;TYPE:Perimeter
G1 F1200.000
G1 X17.585 Y65.387 E0.37273
G1 X17.585 Y114.613 E1.54344
G1 X5.697 Y114.613 E0.37273
G1 X5.697 Y65.447 E1.54156
M204 S1250
G1 X5.320 Y65.010 F9000.000
M204 S800
;TYPE:External perimeter
G1 F1200.000
G1 X17.962 Y65.010 E0.39638
G1 X17.962 Y114.990 E1.56709
G1 X5.320 Y114.990 E0.39638
G1 X5.320 Y65.070 E1.56521
M204 S1250
G1 X5.682 Y65.181 F9000.000
G1 E-2.24000 F4200.000
;WIPE_START
G1 F7200.000
G1 X6.966 Y65.062 E-0.91200
;WIPE_END
G1 E-0.04800 F4200.000
G1 Z0.400 F9000.000
G1 X16.703 Y65.500
G1 Z0.200
G1 E3.20000 F2400.000
M204 S800
;TYPE:Solid infill
;WIDTH:0.422984
G1 F1200.000
G1 X17.302 Y66.099 E0.02677
G1 X17.302 Y66.637 E0.01699
G1 X16.335 Y65.670 E0.04321
G1 X15.798 Y65.670 E0.01699
G1 X17.302 Y67.174 E0.06723
G1 X17.302 Y67.712 E0.01699
G1 X15.260 Y65.670 E0.09125
G1 X14.723 Y65.670 E0.01699
G1 X17.302 Y68.249 E0.11527
G1 X17.302 Y68.787 E0.01699
G1 X14.185 Y65.670 E0.13929
G1 X13.648 Y65.670 E0.01699
G1 X17.302 Y69.324 E0.16331
G1 X17.302 Y69.862 E0.01699
G1 X13.110 Y65.670 E0.18734
G1 X12.573 Y65.670 E0.01699
G1 X17.302 Y70.399 E0.21136
G1 X17.302 Y70.937 E0.01699
G1 X12.035 Y65.670 E0.23538
G1 X11.498 Y65.670 E0.01699
G1 X17.302 Y71.474 E0.25940
G1 X17.302 Y72.012 E0.01699
G1 X10.960 Y65.670 E0.28342
G1 X10.423 Y65.670 E0.01699
G1 X17.302 Y72.549 E0.30745
G1 X17.302 Y73.086 E0.01699
G1 X9.886 Y65.670 E0.33147
G1 X9.348 Y65.670 E0.01699
G1 X17.302 Y73.624 E0.35549
G1 X17.302 Y74.161 E0.01699
G1 X8.811 Y65.670 E0.37951
G1 X8.273 Y65.670 E0.01699
G1 X17.302 Y74.699 E0.40353
G1 X17.302 Y75.236 E0.01699
G1 X7.736 Y65.670 E0.42756
G1 X7.198 Y65.670 E0.01699
G1 X17.302 Y75.774 E0.45158
G1 X17.302 Y76.311 E0.01699
G1 X6.661 Y65.670 E0.47560
G1 X6.123 Y65.670 E0.01699
G1 X17.302 Y76.849 E0.49962
G1 X17.302 Y77.386 E0.01699
G1 X5.980 Y66.064 E0.50602
G1 X5.980 Y66.602 E0.01699
G1 X17.302 Y77.924 E0.50602
G1 X17.302 Y78.461 E0.01699
G1 X5.980 Y67.139 E0.50602
G1 X5.980 Y67.677 E0.01699
G1 X17.302 Y78.999 E0.50602
G1 X17.302 Y79.536 E0.01699
G1 X5.980 Y68.214 E0.50602
G1 X5.980 Y68.752 E0.01699
G1 X17.302 Y80.074 E0.50602
G1 X17.302 Y80.611 E0.01699
G1 X5.980 Y69.289 E0.50602
G1 X5.980 Y69.827 E0.01699
G1 X17.302 Y81.149 E0.50602
G1 X17.302 Y81.686 E0.01699
G1 X5.980 Y70.364 E0.50602
G1 X5.980 Y70.902 E0.01699
G1 X17.302 Y82.224 E0.50602
G1 X17.302 Y82.761 E0.01699
G1 X5.980 Y71.439 E0.50602
G1 X5.980 Y71.977 E0.01699
G1 X17.302 Y83.299 E0.50602
G1 X17.302 Y83.836 E0.01699
G1 X5.980 Y72.514 E0.50602
G1 X5.980 Y73.052 E0.01699
G1 X17.302 Y84.374 E0.50602
G1 X17.302 Y84.911 E0.01699
G1 X5.980 Y73.589 E0.50602
G1 X5.980 Y74.127 E0.01699
G1 X17.302 Y85.449 E0.50602
G1 X17.302 Y85.986 E0.01699
G1 X5.980 Y74.664 E0.50602
M73 P0 R361
G1 X5.980 Y75.202 E0.01699
G1 X17.302 Y86.524 E0.50602
G1 X17.302 Y87.061 E0.01699
G1 X5.980 Y75.739 E0.50602
G1 X5.980 Y76.276 E0.01699
G1 X17.302 Y87.599 E0.50602
G1 X17.302 Y88.136 E0.01699
G1 X5.980 Y76.814 E0.50602
G1 X5.980 Y77.351 E0.01699
G1 X17.302 Y88.674 E0.50602
G1 X17.302 Y89.211 E0.01699
G1 X5.980 Y77.889 E0.50602
G1 X5.980 Y78.426 E0.01699
G1 X17.302 Y89.749 E0.50602
G1 X17.302 Y90.286 E0.01699
G1 X5.980 Y78.964 E0.50602
G1 X5.980 Y79.501 E0.01699
G1 X17.302 Y90.824 E0.50602
G1 X17.302 Y91.361 E0.01699
G1 X5.980 Y80.039 E0.50602
G1 X5.980 Y80.576 E0.01699
G1 X17.302 Y91.899 E0.50602
G1 X17.302 Y92.436 E0.01699
G1 X5.980 Y81.114 E0.50602
G1 X5.980 Y81.651 E0.01699
G1 X17.302 Y92.974 E0.50602
G1 X17.302 Y93.511 E0.01699
G1 X5.980 Y82.189 E0.50602
G1 X5.980 Y82.726 E0.01699
G1 X17.302 Y94.049 E0.50602
G1 X17.302 Y94.586 E0.01699
G1 X5.980 Y83.264 E0.50602
G1 X5.980 Y83.801 E0.01699
G1 X17.302 Y95.124 E0.50602
G1 X17.302 Y95.661 E0.01699
G1 X5.980 Y84.339 E0.50602
G1 X5.980 Y84.876 E0.01699
G1 X17.302 Y96.199 E0.50602
G1 X17.302 Y96.736 E0.01699
G1 X5.980 Y85.414 E0.50602
G1 X5.980 Y85.951 E0.01699
G1 X17.302 Y97.274 E0.50602
G1 X17.302 Y97.811 E0.01699
G1 X5.980 Y86.489 E0.50602
G1 X5.980 Y87.026 E0.01699
G1 X17.302 Y98.349 E0.50602
G1 X17.302 Y98.886 E0.01699
G1 X5.980 Y87.564 E0.50602
G1 X5.980 Y88.101 E0.01699
G1 X17.302 Y99.424 E0.50602
G1 X17.302 Y99.961 E0.01699
G1 X5.980 Y88.639 E0.50602
G1 X5.980 Y89.176 E0.01699
G1 X17.302 Y100.499 E0.50602
G1 X17.302 Y101.036 E0.01699
G1 X5.980 Y89.714 E0.50602
G1 X5.980 Y90.251 E0.01699
G1 X17.302 Y101.574 E0.50602
G1 X17.302 Y102.111 E0.01699
G1 X5.980 Y90.789 E0.50602
G1 X5.980 Y91.326 E0.01699
G1 X17.302 Y102.649 E0.50602
G1 X17.302 Y103.186 E0.01699
G1 X5.980 Y91.864 E0.50602
G1 X5.980 Y92.401 E0.01699
G1 X17.302 Y103.724 E0.50602
G1 X17.302 Y104.261 E0.01699
G1 X5.980 Y92.939 E0.50602
G1 X5.980 Y93.476 E0.01699
G1 X17.302 Y104.798 E0.50602
G1 X17.302 Y105.336 E0.01699
G1 X5.980 Y94.014 E0.50602
G1 X5.980 Y94.551 E0.01699
G1 X17.302 Y105.873 E0.50602
G1 X17.302 Y106.411 E0.01699
G1 X5.980 Y95.089 E0.50602
G1 X5.980 Y95.626 E0.01699
G1 X17.302 Y106.948 E0.50602
G1 X17.302 Y107.486 E0.01699
G1 X5.980 Y96.164 E0.50602
G1 X5.980 Y96.701 E0.01699
G1 X17.302 Y108.023 E0.50602
G1 X17.302 Y108.561 E0.01699
G1 X5.980 Y97.239 E0.50602
G1 X5.980 Y97.776 E0.01699
G1 X17.302 Y109.098 E0.50602
G1 X17.302 Y109.636 E0.01699
G1 X5.980 Y98.314 E0.50602
G1 X5.980 Y98.851 E0.01699
G1 X17.302 Y110.173 E0.50602
G1 X17.302 Y110.711 E0.01699
G1 X5.980 Y99.389 E0.50602
G1 X5.980 Y99.926 E0.01699
G1 X17.302 Y111.248 E0.50602
G1 X17.302 Y111.786 E0.01699
G1 X5.980 Y100.464 E0.50602
G1 X5.980 Y101.001 E0.01699
G1 X17.302 Y112.323 E0.50602
G1 X17.302 Y112.861 E0.01699
G1 X5.980 Y101.539 E0.50602
G1 X5.980 Y102.076 E0.01699
G1 X17.302 Y113.398 E0.50602
G1 X17.302 Y113.936 E0.01699
G1 X5.980 Y102.614 E0.50602
G1 X5.980 Y103.151 E0.01699
G1 X17.159 Y114.330 E0.49962
G1 X16.621 Y114.330 E0.01699
G1 X5.980 Y103.689 E0.47560
G1 X5.980 Y104.226 E0.01699
G1 X16.084 Y114.330 E0.45158
G1 X15.546 Y114.330 E0.01699
G1 X5.980 Y104.764 E0.42756
G1 X5.980 Y105.301 E0.01699
G1 X15.009 Y114.330 E0.40353
G1 X14.471 Y114.330 E0.01699
G1 X5.980 Y105.839 E0.37951
G1 X5.980 Y106.376 E0.01699
G1 X13.934 Y114.330 E0.35549
G1 X13.396 Y114.330 E0.01699
G1 X5.980 Y106.914 E0.33147
G1 X5.980 Y107.451 E0.01699
G1 X12.859 Y114.330 E0.30745
G1 X12.321 Y114.330 E0.01699
G1 X5.980 Y107.989 E0.28342
G1 X5.980 Y108.526 E0.01699
G1 X11.784 Y114.330 E0.25940
G1 X11.246 Y114.330 E0.01699
G1 X5.980 Y109.063 E0.23538
G1 X5.980 Y109.601 E0.01699
G1 X10.709 Y114.330 E0.21136
G1 X10.172 Y114.330 E0.01699
G1 X5.980 Y110.138 E0.18734
G1 X5.980 Y110.676 E0.01699
G1 X9.634 Y114.330 E0.16331
G1 X9.097 Y114.330 E0.01699
G1 X5.980 Y111.213 E0.13929
G1 X5.980 Y111.751 E0.01699
G1 X8.559 Y114.330 E0.11527
G1 X8.022 Y114.330 E0.01699
G1 X5.980 Y112.288 E0.09125
G1 X5.980 Y112.826 E0.01699
G1 X7.484 Y114.330 E0.06723
G1 X6.947 Y114.330 E0.01699
G1 X5.980 Y113.363 E0.04320
G1 X5.980 Y113.901 E0.01699
G1 X6.579 Y114.500 E0.02677
M204 S1250
G1 E-2.24000 F4200.000
;WIPE_START
G1 F7200.000
G1 X5.980 Y113.901 E-0.46937
G1 X5.980 Y113.363 E-0.29786
G1 X6.165 Y113.548 E-0.14477
;WIPE_END
G1 E-0.04800 F4200.000
G1 Z0.400 F9000.000
G1 X24.239 Y114.500
G1 Z0.200
G1 E3.20000 F2400.000
M204 S800
;TYPE:Perimeter
;WIDTH:0.42
G1 F1200.000
G1 X24.239 Y65.387 E1.53990
G1 X174.303 Y65.387 E4.70515
M73 P0 R360
G1 X174.303 Y114.613 E1.54344
G1 X24.239 Y114.613 E4.70515
G1 X24.239 Y114.560 E0.00167
M204 S1250
G1 X23.862 Y114.990 F9000.000
M204 S800
;TYPE:External perimeter
G1 F1200.000
G1 X23.862 Y65.010 E1.56709
G1 X174.680 Y65.010 E4.72879
G1 X174.680 Y114.990 E1.56709
G1 X23.922 Y114.990 E4.72691
M204 S1250
G1 X24.024 Y114.624 F9000.000
G1 E-2.24000 F4200.000
;WIPE_START
G1 F7200.000
G1 X23.920 Y113.344 E-0.91200
;WIPE_END
G1 E-0.04800 F4200.000
G1 Z0.400 F9000.000
G1 X173.428 Y65.500
G1 Z0.200
G1 E3.20000 F2400.000
M204 S800
;TYPE:Solid infill
;WIDTH:0.420004
G1 F1200.000
G1 X174.020 Y66.093 E0.02628
G1 X174.020 Y66.626 E0.01672
G1 X173.064 Y65.670 E0.04240
G1 X172.531 Y65.670 E0.01672
G1 X174.020 Y67.159 E0.06605
G1 X174.020 Y67.693 E0.01672
G1 X171.997 Y65.670 E0.08969
G1 X171.464 Y65.670 E0.01672
G1 X174.020 Y68.226 E0.11334
G1 X174.020 Y68.759 E0.01672
G1 X170.931 Y65.670 E0.13699
G1 X170.398 Y65.670 E0.01672
G1 X174.020 Y69.292 E0.16063
G1 X174.020 Y69.826 E0.01672
G1 X169.864 Y65.670 E0.18428
G1 X169.331 Y65.670 E0.01672
G1 X174.020 Y70.359 E0.20793
G1 X174.020 Y70.892 E0.01672
G1 X168.798 Y65.670 E0.23157
G1 X168.264 Y65.670 E0.01672
G1 X174.020 Y71.426 E0.25522
G1 X174.020 Y71.959 E0.01672
G1 X167.731 Y65.670 E0.27887
G1 X167.198 Y65.670 E0.01672
G1 X174.020 Y72.492 E0.30251
G1 X174.020 Y73.025 E0.01672
G1 X166.665 Y65.670 E0.32616
G1 X166.131 Y65.670 E0.01672
G1 X174.020 Y73.559 E0.34981
G1 X174.020 Y74.092 E0.01672
G1 X165.598 Y65.670 E0.37345
G1 X165.065 Y65.670 E0.01672
G1 X174.020 Y74.625 E0.39710
G1 X174.020 Y75.158 E0.01672
G1 X164.532 Y65.670 E0.42075
G1 X163.998 Y65.670 E0.01672
G1 X174.020 Y75.692 E0.44439
G1 X174.020 Y76.225 E0.01672
G1 X163.465 Y65.670 E0.46804
G1 X162.932 Y65.670 E0.01672
G1 X174.020 Y76.758 E0.49169
G1 X174.020 Y77.292 E0.01672
G1 X162.398 Y65.670 E0.51533
G1 X161.865 Y65.670 E0.01672
G1 X174.020 Y77.825 E0.53898
G1 X174.020 Y78.358 E0.01672
G1 X161.332 Y65.670 E0.56263
G1 X160.799 Y65.670 E0.01672
G1 X174.020 Y78.891 E0.58627
G1 X174.020 Y79.425 E0.01672
G1 X160.265 Y65.670 E0.60992
G1 X159.732 Y65.670 E0.01672
G1 X174.020 Y79.958 E0.63357
G1 X174.020 Y80.491 E0.01672
G1 X159.199 Y65.670 E0.65721
G1 X158.665 Y65.670 E0.01672
G1 X174.020 Y81.025 E0.68086
G1 X174.020 Y81.558 E0.01672
G1 X158.132 Y65.670 E0.70451
G1 X157.599 Y65.670 E0.01672
G1 X174.020 Y82.091 E0.72815
G1 X174.020 Y82.624 E0.01672
G1 X157.066 Y65.670 E0.75180
G1 X156.532 Y65.670 E0.01672
G1 X174.020 Y83.158 E0.77545
G1 X174.020 Y83.691 E0.01672
G1 X155.999 Y65.670 E0.79909
G1 X155.466 Y65.670 E0.01672
G1 X174.020 Y84.224 E0.82274
M73 P0 R359
G1 X174.020 Y84.757 E0.01672
G1 X154.933 Y65.670 E0.84639
G1 X154.399 Y65.670 E0.01672
G1 X174.020 Y85.291 E0.87003
G1 X174.020 Y85.824 E0.01672
G1 X153.866 Y65.670 E0.89368
G1 X153.333 Y65.670 E0.01672
G1 X174.020 Y86.357 E0.91733
G1 X174.020 Y86.891 E0.01672
G1 X152.799 Y65.670 E0.94097
G1 X152.266 Y65.670 E0.01672
G1 X174.020 Y87.424 E0.96462
G1 X174.020 Y87.957 E0.01672
G1 X151.733 Y65.670 E0.98827
G1 X151.200 Y65.670 E0.01672
G1 X174.020 Y88.490 E1.01191
G1 X174.020 Y89.024 E0.01672
G1 X150.666 Y65.670 E1.03556
G1 X150.133 Y65.670 E0.01672
G1 X174.020 Y89.557 E1.05921
G1 X174.020 Y90.090 E0.01672
G1 X149.600 Y65.670 E1.08285
G1 X149.066 Y65.670 E0.01672
G1 X174.020 Y90.624 E1.10650
G1 X174.020 Y91.157 E0.01672
G1 X148.533 Y65.670 E1.13015
G1 X148.000 Y65.670 E0.01672
G1 X174.020 Y91.690 E1.15379
M73 P1 R359
G1 X174.020 Y92.223 E0.01672
G1 X147.467 Y65.670 E1.17744
G1 X146.933 Y65.670 E0.01672
G1 X174.020 Y92.757 E1.20109
G1 X174.020 Y93.290 E0.01672
G1 X146.400 Y65.670 E1.22473
G1 X145.867 Y65.670 E0.01672
G1 X174.020 Y93.823 E1.24838
G1 X174.020 Y94.356 E0.01672
G1 X145.334 Y65.670 E1.27203
G1 X144.800 Y65.670 E0.01672
G1 X174.020 Y94.890 E1.29567
G1 X174.020 Y95.423 E0.01672
G1 X144.267 Y65.670 E1.31932
G1 X143.734 Y65.670 E0.01672
G1 X174.020 Y95.956 E1.34297
G1 X174.020 Y96.490 E0.01672
G1 X143.200 Y65.670 E1.36661
G1 X142.667 Y65.670 E0.01672
G1 X174.020 Y97.023 E1.39026
G1 X174.020 Y97.556 E0.01672
G1 X142.134 Y65.670 E1.41391
G1 X141.601 Y65.670 E0.01672
G1 X174.020 Y98.089 E1.43755
G1 X174.020 Y98.623 E0.01672
G1 X141.067 Y65.670 E1.46120
G1 X140.534 Y65.670 E0.01672
G1 X174.020 Y99.156 E1.48485
G1 X174.020 Y99.689 E0.01672
G1 X140.001 Y65.670 E1.50849
G1 X139.467 Y65.670 E0.01672
G1 X174.020 Y100.223 E1.53214
G1 X174.020 Y100.756 E0.01672
G1 X138.934 Y65.670 E1.55579
M73 P1 R358
G1 X138.401 Y65.670 E0.01672
G1 X174.020 Y101.289 E1.57943
G1 X174.020 Y101.822 E0.01672
G1 X137.868 Y65.670 E1.60308
G1 X137.334 Y65.670 E0.01672
G1 X174.020 Y102.356 E1.62673
G1 X174.020 Y102.889 E0.01672
G1 X136.801 Y65.670 E1.65037
G1 X136.268 Y65.670 E0.01672
G1 X174.020 Y103.422 E1.67402
G1 X174.020 Y103.955 E0.01672
G1 X135.735 Y65.670 E1.69767
G1 X135.201 Y65.670 E0.01672
G1 X174.020 Y104.489 E1.72131
G1 X174.020 Y105.022 E0.01672
G1 X134.668 Y65.670 E1.74496
G1 X134.135 Y65.670 E0.01672
G1 X174.020 Y105.555 E1.76861
G1 X174.020 Y106.089 E0.01672
G1 X133.601 Y65.670 E1.79225
G1 X133.068 Y65.670 E0.01672
G1 X174.020 Y106.622 E1.81590
G1 X174.020 Y107.155 E0.01672
G1 X132.535 Y65.670 E1.83955
G1 X132.002 Y65.670 E0.01672
G1 X174.020 Y107.688 E1.86319
G1 X174.020 Y108.222 E0.01672
G1 X131.468 Y65.670 E1.88684
G1 X130.935 Y65.670 E0.01672
G1 X174.020 Y108.755 E1.91049
G1 X174.020 Y109.288 E0.01672
G1 X130.402 Y65.670 E1.93413
G1 X129.868 Y65.670 E0.01672
G1 X174.020 Y109.822 E1.95778
G1 X174.020 Y110.355 E0.01672
G1 X129.335 Y65.670 E1.98143
G1 X128.802 Y65.670 E0.01672
G1 X174.020 Y110.888 E2.00507
G1 X174.020 Y111.421 E0.01672
G1 X128.269 Y65.670 E2.02872
G1 X127.735 Y65.670 E0.01672
G1 X174.020 Y111.955 E2.05237
M73 P1 R357
G1 X174.020 Y112.488 E0.01672
G1 X127.202 Y65.670 E2.07601
G1 X126.669 Y65.670 E0.01672
G1 X174.020 Y113.021 E2.09966
G1 X174.020 Y113.554 E0.01672
G1 X126.136 Y65.670 E2.12331
G1 X125.602 Y65.670 E0.01672
G1 X174.020 Y114.088 E2.14695
G1 X174.020 Y114.330 E0.00760
G1 X173.729 Y114.330 E0.00912
G1 X125.069 Y65.670 E2.15770
G1 X124.536 Y65.670 E0.01672
G1 X173.196 Y114.330 E2.15770
G1 X172.663 Y114.330 E0.01672
G1 X124.002 Y65.670 E2.15770
G1 X123.469 Y65.670 E0.01672
G1 X172.129 Y114.330 E2.15770
G1 X171.596 Y114.330 E0.01672
G1 X122.936 Y65.670 E2.15770
G1 X122.403 Y65.670 E0.01672
G1 X171.063 Y114.330 E2.15770
